X:1
T:Europa, 11.11.7.7
T:Europa, 11.11.7.7
T:Mary Ann Sidebotham, 1881
T:Public Domain Courtesy of the Cyber Hymnal™
C:Mary Ann Sidebotham, 1881
Z:Public Domain
Z:Courtesy of the Cyber Hymnal™
%%score ( 1 2 ) ( 3 4 )
L:1/8
Q:1/4=115
M:4/4
K:Eb
V:1 treble 
V:2 treble 
V:3 bass 
V:4 bass 
V:1
 [EG]2 [EG]2 [EA]2 [CF]2 | (E2 D2) [B,E]4 | [B,E]2 [EG]2 [EB]2 [EA]2 | [EG]4 [DF]4 | %4
 [EG]2 [DB]2 [Ee]2 [Ed]2 | [Ec]4 B4 | [EG]2 [_DB]2 [CA]2 [=DF]2 | E8 | [EB]2 [EB]2 [Ee]2 [Fc]2 | %9
 [F_d]2 (cB) [Ec]4 | [DB]2 [EB]2 [FB]2 E2 | [B,E]2 [B,D]2 [B,E]4 |] %12
V:2
 x8 | B,4 x4 | x8 | x8 | x8 | x4 (E2 D2) | x8 | E8 | x8 | x2 E2 x4 | x6 E2 | x8 |] %12
V:3
 [E,B,]2 [D,B,]2 [C,A,]2 [A,,A,]2 | (G,2 F,2) [E,G,]4 | G,2 [E,B,]2 [G,,B,]2 [A,,C]2 | %3
 (B,2 =A,2) B,4 | [E,B,]2 [F,A,]2 [G,B,]2 [G,,B,]2 | (A,2 G,2) [B,,F,]4 | %6
 [C,E,]2 [G,,E,]2 [A,,E,]2 [B,,A,]2 | [E,G,]8 | [E,G,]2 [_D,G,]2 [C,A,]2 [F,A,]2 | %9
 [B,,A,]2 [E,G,]2 [A,,A,]4 | [B,,A,]2 [C,A,]2 [D,A,]2 [E,G,]2 | [F,A,]2 [B,,A,]2 [E,G,]4 |] %12
V:4
 x8 | B,,4 x4 | G,2 x6 | B,,8 | x8 | A,,4 x4 | x8 | x8 | x8 | x8 | x8 | x8 |] %12

